X: 129015
T: The DRUNKEN PARSON
%R: jig
B: James Kerr "Merry Melodies" v.1 p.29 s.0 #15
Z: 2016 John Chambers <jc:trillian.mit.edu>
M: 6/8
L: 1/8
K: G
uD |\
GBB Acc | Bdd uc2ue | dBB cAA | BGG G2 D |\
GBB Acc | Bdd c2e | dBB cAd | BGG G2 ||
uD |\
GBd gfg | ecc uc2uB | Ace aga | fdd d2 B |\
GBd gfg | ecc c2e | dBB cAd | BGG G2 |]

%%sep 1 1 500
%%sep 1 1 500

